icons/reply-line.svg

<svg viewBox="0 0 24 24" fill="currentColor" xmlns="http://www.w3.org/2000/svg"><path d="M11 20L1 12L11 4V9C16.5228 9 21 13.4772 21 19C21 19.2727 20.9891 19.5428 20.9677 19.81C19.5055 17.0364 16.6381 15.119 13.313 15.0053L13 15H10.9999L11 20ZM8.99986 13H10.9999L13.0341 13.0003L13.3814 13.0065C14.6657 13.0504 15.9053 13.3165 17.0568 13.7734C15.5898 12.0749 13.4204 11 11 11H9V8.16125L4.20156 12L8.99992 15.8387L8.99986 13Z"/></svg>

<svg xmlns="http://www.w3.org/2000/svg" viewBox="0 0 24 24">
    <g>
        <path fill="none" d="M0 0H24V24H0z"/>
        <path d="M11 20L1 12l10-8v5c5.523 0 10 4.477 10 10 0 .273-.01.543-.032.81-1.463-2.774-4.33-4.691-7.655-4.805L13 15h-2v5zm-2-7h4.034l.347.007c1.285.043 2.524.31 3.676.766C15.59 12.075 13.42 11 11 11H9V8.161L4.202 12 9 15.839V13z"/>
    </g>
</svg>
